X:1                          % number
T:Le tailleur de pierre                           % title
C:Trad.                           % composer
O:France                           % origin.
M:3/8                           % meter
L:1/8                        % length of shortest note
Q:                           % tempo
K:C                           % key
V:1                          % voice 1
"C"cdg | "G7"g2a | "F"fg2 | "F"f2e | "G7"def | "G7"g2a | "F"fg2 | "G7"d3 ::
"C"cde | "F"f2e | "C"cd2 | "C"c2G | "C"cde | "F"f2e | "C"cd2 | "C"c3 :|
